X: 1
T: Hawthorn Bush, The
M: 9/8
L: 1/8
R: slip jig
K: Dmaj
|: d | AFF F^EF DBB | AFD EFA B2 d |
AFF F^EF DFF | FED EF/G/A B2 :|
|: c | dcd ed/c/B AFD | dcd edc B2 c |
dcd edc BB/c/d | AFD EFA B2 :|
